public/images/icon_id_sector_empresa_3.svg

<svg width="42" height="42" viewBox="0 0 42 42" fill="none" xmlns="http://www.w3.org/2000/svg">
<path d="M36.0938 12.3376H29.1113V6.68068C29.1113 5.70943 28.3238 4.93506 27.3656 4.93506H14.6606C13.6894 4.93506 12.915 5.72256 12.915 6.68068V12.3376H5.9325C5.55188 12.3376 5.23688 12.6526 5.23688 13.0332V18.3357C5.23688 18.7163 5.55188 19.0313 5.9325 19.0313H6.3V21.6826H7.67813V19.0313H9.20063V20.4619C9.20063 20.8426 9.51563 21.1576 9.89625 21.1576H12.0094C12.39 21.1576 12.705 20.8426 12.705 20.4619V19.0313H24.885V17.6532H12.705V16.2226C12.705 15.8419 12.39 15.5269 12.0094 15.5269H9.89625C9.51563 15.5269 9.20063 15.8419 9.20063 16.2226V17.6532H6.615V13.7419H35.3981V17.6532H32.8125V16.2226C32.8125 15.8419 32.4975 15.5269 32.1169 15.5269H30.0038C29.6231 15.5269 29.3081 15.8419 29.3081 16.2226V17.6532H27.72V19.0313H29.3081V20.4619C29.3081 20.8426 29.6231 21.1576 30.0038 21.1576H32.1169C32.4975 21.1576 32.8125 20.8426 32.8125 20.4619V19.0313H34.335V35.6476H23.2838V32.8782H21.9056V35.6476H20.1075V28.6126C20.1075 28.3238 19.9369 28.0744 19.6744 27.9694C18.8475 27.6413 18.1913 27.0113 17.8106 26.2107C17.4038 25.3576 17.3513 24.3994 17.6794 23.5069C17.9681 22.6932 18.5325 22.0369 19.2675 21.6169V24.6882C19.2675 24.9507 19.4119 25.2001 19.6481 25.3051L20.7113 25.8301C20.9081 25.9351 21.1444 25.9351 21.3281 25.8301L22.3913 25.3051C22.6275 25.1869 22.7719 24.9507 22.7719 24.6882V21.6169C23.4675 22.0107 24.0056 22.6276 24.3075 23.3626C24.6619 24.2419 24.6488 25.2001 24.2813 26.0663C23.9138 26.9326 23.2313 27.6151 22.3519 27.9694C22.0894 28.0744 21.9188 28.3238 21.9188 28.6126V31.1326H23.2969V29.0588C24.5306 28.4157 25.4363 27.2738 25.7906 25.9219C26.4731 23.2969 24.885 20.6063 22.2469 19.9238C22.0369 19.8713 21.8269 19.9238 21.6563 20.0419C21.4856 20.1732 21.3806 20.3701 21.3806 20.5932V24.2682L21.0131 24.4519L20.6456 24.2682V20.5932C20.6456 20.5932 20.6456 20.4882 20.6194 20.4226C20.5275 20.0551 20.1338 19.8319 19.7794 19.9238C18.3881 20.2782 17.2331 21.2232 16.59 22.5094C16.0125 23.6907 15.9206 25.0294 16.3406 26.2763C16.7475 27.4838 17.6006 28.4813 18.7294 29.0719V35.6607H7.665V24.5438H6.28688V36.3563C6.28688 36.7369 6.60188 37.0519 6.9825 37.0519H35.0438C35.4244 37.0519 35.7394 36.7369 35.7394 36.3563V19.0444H36.1069C36.4875 19.0444 36.8025 18.7294 36.8025 18.3488V13.0463C36.8025 12.6657 36.4875 12.3507 36.1069 12.3507L36.0938 12.3376ZM25.6069 8.42631V12.3376H16.3931V8.42631H25.6069ZM26.2894 7.03506H15.6975C15.3169 7.03506 15.0019 7.35006 15.0019 7.73068V12.3376H14.2669V6.68068C14.2669 6.48381 14.4375 6.31318 14.6344 6.31318H27.3394C27.5363 6.31318 27.7069 6.47068 27.7069 6.68068V12.3376H26.9719V7.73068C26.9719 7.35006 26.6569 7.03506 26.2763 7.03506H26.2894ZM10.5656 19.7532V16.9051H11.3006V19.7532H10.5656ZM31.4344 16.8919V19.7401H30.6994V16.8919H31.4344Z" fill="url(#paint0_linear_133_1160)"/>
<path d="M7.65187 22.3916H6.27374V23.7697H7.65187V22.3916Z" fill="url(#paint1_linear_133_1160)"/>
<path d="M26.985 17.627H25.6069V19.0051H26.985V17.627Z" fill="url(#paint2_linear_133_1160)"/>
<defs>
<linearGradient id="paint0_linear_133_1160" x1="20.7077" y1="4.93506" x2="35.3925" y2="13.8245" gradientUnits="userSpaceOnUse">
<stop stop-color="#192644"/>
<stop offset="1" stop-color="#1A4081"/>
</linearGradient>
<linearGradient id="paint1_linear_133_1160" x1="6.94918" y1="22.3916" x2="7.58431" y2="22.7828" gradientUnits="userSpaceOnUse">
<stop stop-color="#192644"/>
<stop offset="1" stop-color="#1A4081"/>
</linearGradient>
<linearGradient id="paint2_linear_133_1160" x1="26.2823" y1="17.627" x2="26.9174" y2="18.0181" gradientUnits="userSpaceOnUse">
<stop stop-color="#192644"/>
<stop offset="1" stop-color="#1A4081"/>
</linearGradient>
</defs>
</svg>

<svg xmlns="http://www.w3.org/2000/svg" fill="none" viewBox="0 0 42 42"><path fill="url(#a)" d="M36.1 12.34H29.1V6.68c0-.97-.79-1.74-1.74-1.74h-12.7c-.98 0-1.76.78-1.76 1.74v5.66H5.93a.7.7 0 0 0-.7.7v5.3c0 .38.32.7.7.7h.37v2.64h1.38v-2.65H9.2v1.43c0 .38.32.7.7.7H12a.7.7 0 0 0 .7-.7v-1.43H24.9v-1.38H12.7v-1.43a.7.7 0 0 0-.7-.7H9.9a.7.7 0 0 0-.7.7v1.43H6.62v-3.9H35.4v3.9H32.8v-1.43a.7.7 0 0 0-.7-.7h-2.1a.7.7 0 0 0-.7.7v1.43h-1.59v1.38h1.59v1.43c0 .38.31.7.7.7h2.1a.7.7 0 0 0 .7-.7v-1.43h1.52v16.62H23.29v-2.77h-1.37v2.77h-1.8V28.6a.69.69 0 0 0-.44-.64 3.49 3.49 0 0 1-1.86-1.76 3.53 3.53 0 0 1 1.46-4.6v3.08c0 .26.14.51.38.62l1.06.52c.2.1.43.1.62 0l1.06-.52a.68.68 0 0 0 .38-.62v-3.07a3.51 3.51 0 0 1 1.5 4.45 3.52 3.52 0 0 1-1.92 1.9.69.69 0 0 0-.43.64v2.52h1.38v-2.07a4.93 4.93 0 0 0-1.05-9.14.69.69 0 0 0-.87.67v3.68l-.37.18-.36-.18v-3.68s0-.1-.03-.17a.7.7 0 0 0-.84-.5 4.93 4.93 0 0 0-1.05 9.15v6.6H7.66V24.53H6.3v11.82c0 .38.31.7.7.7h28.05a.7.7 0 0 0 .7-.7V19.04h.37a.7.7 0 0 0 .7-.7v-5.3a.7.7 0 0 0-.7-.69l-.02-.01ZM25.6 8.43v3.9h-9.2v-3.9h9.2Zm.69-1.4h-10.6a.7.7 0 0 0-.69.7v4.6h-.73V6.69c0-.2.17-.37.36-.37h12.7c.2 0 .38.16.38.37v5.66h-.74v-4.6a.7.7 0 0 0-.7-.7h.02ZM10.57 19.76v-2.84h.73v2.84h-.73Zm20.86-2.86v2.85h-.73v-2.85h.73Z"/><path fill="url(#b)" d="M7.65 22.4H6.27v1.37h1.38v-1.38Z"/><path fill="url(#c)" d="M26.98 17.63h-1.37V19h1.38v-1.38Z"/><defs><linearGradient id="a" x1="20.71" x2="35.39" y1="4.94" y2="13.82" gradientUnits="userSpaceOnUse"><stop stop-color="#192644"/><stop offset="1" stop-color="#1A4081"/></linearGradient><linearGradient id="b" x1="6.95" x2="7.58" y1="22.39" y2="22.78" gradientUnits="userSpaceOnUse"><stop stop-color="#192644"/><stop offset="1" stop-color="#1A4081"/></linearGradient><linearGradient id="c" x1="26.28" x2="26.92" y1="17.63" y2="18.02" gradientUnits="userSpaceOnUse"><stop stop-color="#192644"/><stop offset="1" stop-color="#1A4081"/></linearGradient></defs></svg>
